icons/evolvere-blue-folders-flat-vivid-dark-fallback/apps/64/distributor-logo-kaiana.svg

<?xml version="1.0" encoding="UTF-8" standalone="no"?>
<!-- Created with Inkscape (http://www.inkscape.org/) -->

<svg
   xmlns:dc="http://purl.org/dc/elements/1.1/"
   xmlns:cc="http://creativecommons.org/ns#"
   xmlns:rdf="http://www.w3.org/1999/02/22-rdf-syntax-ns#"
   xmlns:svg="http://www.w3.org/2000/svg"
   xmlns="http://www.w3.org/2000/svg"
   xmlns:sodipodi="http://sodipodi.sourceforge.net/DTD/sodipodi-0.dtd"
   xmlns:inkscape="http://www.inkscape.org/namespaces/inkscape"
   width="64"
   height="64"
   id="svg13094"
   version="1.1"
   inkscape:version="0.91+devel r"
   sodipodi:docname="distributor-logo-kaiana.svg">
  <sodipodi:namedview
     id="base"
     pagecolor="#ffffff"
     bordercolor="#666666"
     borderopacity="1.0"
     inkscape:pageopacity="0"
     inkscape:pageshadow="2"
     inkscape:zoom="11.313709"
     inkscape:cx="33.886847"
     inkscape:cy="32.056899"
     inkscape:document-units="px"
     inkscape:current-layer="svg13094"
     showgrid="true"
     inkscape:snap-bbox="true"
     inkscape:bbox-paths="true"
     inkscape:bbox-nodes="true"
     inkscape:snap-bbox-edge-midpoints="true"
     inkscape:snap-bbox-midpoints="true"
     inkscape:object-paths="true"
     inkscape:snap-intersection-paths="true"
     inkscape:object-nodes="true"
     inkscape:snap-smooth-nodes="true"
     inkscape:snap-midpoints="true"
     inkscape:snap-object-midpoints="true"
     inkscape:snap-center="true"
     showguides="false"
     inkscape:guide-bbox="true"
     inkscape:window-width="1920"
     inkscape:window-height="1023"
     inkscape:window-x="-10"
     inkscape:window-y="35"
     inkscape:window-maximized="1"
     inkscape:snap-global="true"
     fit-margin-top="0"
     fit-margin-left="0"
     fit-margin-right="0"
     fit-margin-bottom="0"
     showborder="true"
     inkscape:showpageshadow="false"
     inkscape:snap-page="true">
    <inkscape:grid
       type="xygrid"
       id="grid3075"
       empspacing="5"
       visible="true"
       enabled="true"
       snapvisiblegridlinesonly="true"
       originx="1.6362304e-08px"
       originy="18px" />
    <sodipodi:guide
       orientation="0,1"
       position="-11,30"
       id="guide9148" />
    <sodipodi:guide
       orientation="1,0"
       position="32,70"
       id="guide9150" />
  </sodipodi:namedview>
  <defs
     id="defs13096" />
  <metadata
     id="metadata13099">
    <rdf:RDF>
      <cc:Work
         rdf:about="">
        <dc:format>image/svg+xml</dc:format>
        <dc:type
           rdf:resource="http://purl.org/dc/dcmitype/StillImage" />
        <dc:title></dc:title>
      </cc:Work>
    </rdf:RDF>
  </metadata>
  <path
     id="path6538"
     d="m 0,4 0,30 0,28 2,2 30,0 30,0 2,-2 L 64,34 64,4 32,4 0,4 z"
     style="color:#000000;fill:#39a73e;fill-opacity:1;fill-rule:nonzero;stroke:none;stroke-width:2.28571415;marker:none;visibility:visible;display:inline;overflow:visible;enable-background:accumulate"
     inkscape:connector-curvature="0" />
  <path
     style="color:#000000;fill:#7ce278;fill-opacity:1;fill-rule:nonzero;stroke:none;marker:none;visibility:visible;display:inline;overflow:visible;enable-background:accumulate"
     d="M 2 0 L 0 1 L 0 4 L 19.5625 4 L 39.125 4 L 64 4 L 64 1 L 62 0 L 39.125 0 L 19.5625 0 L 2 0 z "
     id="path6688" />
  <path
     d="M 64,6 62,4 64,3 z"
     id="path3028"
     style="fill:#5bc55b;fill-opacity:1"
     inkscape:connector-curvature="0" />
  <g
     id="g3043"
     inkscape:export-filename="folder.png"
     inkscape:export-xdpi="90"
     inkscape:export-ydpi="90"
     transform="translate(-0.62500009,0.082283)" />
  <g
     id="scalable"
     transform="matrix(1.0385892,0,0,1.0385892,1214.7222,1878.8121)"
     inkscape:label="#g3701"
     style="fill:#ffffff" />
  <path
     style="fill:#85ed80;fill-opacity:1;fill-rule:nonzero"
     d="M 0,3 0,6 2,4 Z"
     id="path4298"
     inkscape:connector-curvature="0"
     sodipodi:nodetypes="cccc" />
  <path
     style="color:#000000;fill:#def3dd;fill-opacity:1;fill-rule:nonzero;stroke:none;stroke-width:2.28571415;marker:none;visibility:visible;display:inline;overflow:visible;enable-background:accumulate"
     d="m 16.03813,50.144857 c -0.07579,-0.137635 0.02184,-1.031226 0.216976,-1.985755 1.595024,-7.802658 1.96323,-17.415575 0.963466,-25.153699 -0.576887,-4.465074 -1.223548,-7.215117 -1.631927,-6.940059 -0.225309,0.151752 0.08212,-0.192491 0.299856,-0.495514 0.237823,-0.331004 0.902783,-0.07442 5.710527,0.04035 3.155077,0.07532 5.802308,0.211127 5.882736,0.301792 0.08044,0.09066 -0.126819,1.939467 -0.460555,4.108453 -0.843177,5.479887 -1.11175,8.898435 -1.102902,14.038342 0.0084,4.91257 0.424765,9.471074 1.202714,13.169543 0.283218,1.34646 0.459658,2.60981 0.392086,2.807442 -0.09645,0.282088 -1.328061,0.359337 -5.729014,0.359337 -3.120886,0 -5.667239,-0.110935 -5.743951,-0.250237 z m 29.149636,-0.0057 c -3.223545,-0.141138 -3.66154,-0.222713 -4.919905,-0.916276 -2.561367,-1.411734 -6.172559,-5.731056 -10.011642,-11.974867 -1.618997,-2.633105 -2.395224,-4.132273 -2.395224,-4.626028 0,-0.354835 3.921131,-6.265301 6.49284,-9.786902 2.416183,-3.308629 4.001648,-4.933021 5.195236,-5.322784 0.519222,-0.169549 2.730665,-0.253412 5.394654,-0.204576 l 4.514722,0.08276 0.07347,0.84502 c 0.0908,1.044343 -0.161069,1.266024 -2.104936,1.85265 -1.793336,0.541197 -4.444816,1.986189 -6.45856,3.519758 -1.913287,1.457062 -5.78626,5.40218 -5.78626,5.894038 0,0.472084 3.182665,5.140094 6.121635,8.978597 2.994438,3.910946 6.698658,7.802946 8.344317,8.767311 1.35153,0.792008 1.395697,0.853021 1.336149,1.845792 -0.05732,0.955669 -0.115084,1.026742 -0.83475,1.027114 -0.425242,1.42e-4 -0.919423,0.03933 -1.098176,0.08691 -0.178755,0.04758 -1.917365,0.01675 -3.863573,-0.06847 z"
     id="path3804"
     inkscape:connector-curvature="0"
     sodipodi:nodetypes="cssscscsssssccssssssscsssssssccs" />
</svg>

<svg xmlns="http://www.w3.org/2000/svg" viewBox="0 0 64 64"><g color="#000"><path d="m0 4v30 28l2 2h30 30l2-2v-28-30h-32-32" fill="#39a73e"/><path d="m2 0l-2 1v3h19.563 19.563 24.875v-3l-2-1h-22.875-19.563-17.563" fill="#7ce278"/></g><path d="m64 6l-2-2 2-1z" fill="#5bc55b"/><path d="m0 3v3l2-2" fill="#85ed80"/><path d="m16.04 50.14c-.076-.138.022-1.031.217-1.986 1.595-7.803 1.963-17.416.963-25.15-.577-4.465-1.224-7.215-1.632-6.94-.225.152.082-.192.3-.496.238-.331.903-.074 5.711.04 3.155.075 5.802.211 5.883.302.08.091-.127 1.939-.461 4.108-.843 5.48-1.112 8.898-1.103 14.04.008 4.913.425 9.471 1.203 13.17.283 1.346.46 2.61.392 2.807-.096.282-1.328.359-5.729.359-3.121 0-5.667-.111-5.744-.25m29.15-.006c-3.224-.141-3.662-.223-4.92-.916-2.561-1.412-6.173-5.731-10.01-11.975-1.619-2.633-2.395-4.132-2.395-4.626 0-.355 3.921-6.265 6.493-9.787 2.416-3.309 4-4.933 5.195-5.323.519-.17 2.731-.253 5.395-.205l4.515.083.073.845c.091 1.044-.161 1.266-2.105 1.853-1.793.541-4.445 1.986-6.459 3.52-1.913 1.457-5.786 5.402-5.786 5.894 0 .472 3.183 5.14 6.122 8.979 2.994 3.911 6.699 7.803 8.344 8.767 1.352.792 1.396.853 1.336 1.846-.057.956-.115 1.027-.835 1.027-.425 0-.919.039-1.098.087-.179.048-1.917.017-3.864-.068" fill="#def3dd" color="#000"/></svg>
